groups/alkanes/heptyl.svg

<svg height="256" viewBox="0 0 256 256" width="256" xmlns="http://www.w3.org/2000/svg"><path d="m0 0h256v256h-256z" fill="#fff"/><g fill="none" stroke-width="2"><path d="m234.7 118-28.1 16.2" stroke="#000"/><path d="m206.6 134.2-28-16.2" stroke="#000"/><path d="m178.6 118-28.1 16.2" stroke="#000"/><path d="m150.5 134.2-28-16.2" stroke="#000"/><path d="m122.5 118-28.1 16.1" stroke="#000"/><path d="m94.4 134.1-28.1-16.2" stroke="#000"/><path d="m66.3 117.9-21.1 12.2" stroke="#000"/><path d="m208 133.4-1.4.8-1.4-.8" stroke="#000" stroke-miterlimit="10"/><path d="m180 118.8-1.4-.8-1.4.8" stroke="#000" stroke-miterlimit="10"/><path d="m151.9 133.4-1.4.8-1.4-.8" stroke="#000" stroke-miterlimit="10"/><path d="m123.9 118.8-1.4-.8-1.4.8" stroke="#000" stroke-miterlimit="10"/><path d="m95.8 133.3-1.4.8-1.4-.8" stroke="#000" stroke-miterlimit="10"/><path d="m67.7 118.7-1.4-.8-1 .6" stroke="#000" stroke-miterlimit="10"/><path d="m226.619 104.01c-1.053.607-.244 2.011.809 1.404 1.052-.607 1.861.797.809 1.404-1.053.606-.244 2.01.809 1.403s1.862.797.809 1.404-.244 2.01.809 1.403c1.053-.606 1.862.797.809 1.404s-.244 2.011.809 1.404 1.862.797.809 1.403c-1.053.607-.244 2.011.809 1.404s1.862.797.809 1.404c-1.052.606-.243 2.01.809 1.403 1.053-.607 1.862.797.809 1.404-1.052.607-.243 2.01.81 1.404 1.052-.607 1.861.796.809 1.403-1.053.607-.244 2.011.809 1.404 1.052-.607 1.861.797.809 1.404-1.053.606-.244 2.01.809 1.403s1.862.797.809 1.404-.244 2.01.809 1.403c1.053-.606 1.862.797.809 1.404" stroke="#7f7f7f"/></g><text font-family="sans-serif" font-size="19" x="12.8" y="143.8">H</text><text font-family="sans-serif" font-size="12" x="26.2" y="151.6">3</text><text font-family="sans-serif" font-size="19" x="32.4" y="143.8">C</text></svg>

<?xml version='1.0' encoding='iso-8859-1'?>
<svg version='1.1' baseProfile='full'
              xmlns='http://www.w3.org/2000/svg'
                      xmlns:rdkit='http://www.rdkit.org/xml'
                      xmlns:xlink='http://www.w3.org/1999/xlink'
                  xml:space='preserve'
width='256px' height='256px' viewBox='0 0 256 256'>
<!-- END OF HEADER -->
<rect style='opacity:1.0;fill:#FFFFFF;stroke:none' width='256.0' height='256.0' x='0.0' y='0.0'> </rect>
<path class='bond-0 atom-0 atom-1' d='M 234.7,118.0 L 206.6,134.2' style='fill:none;fill-rule:evenodd;stroke:#000000;stroke-width:2.0px;stroke-linecap:butt;stroke-linejoin:miter;stroke-opacity:1' />
<path class='bond-1 atom-1 atom-2' d='M 206.6,134.2 L 178.6,118.0' style='fill:none;fill-rule:evenodd;stroke:#000000;stroke-width:2.0px;stroke-linecap:butt;stroke-linejoin:miter;stroke-opacity:1' />
<path class='bond-2 atom-2 atom-3' d='M 178.6,118.0 L 150.5,134.2' style='fill:none;fill-rule:evenodd;stroke:#000000;stroke-width:2.0px;stroke-linecap:butt;stroke-linejoin:miter;stroke-opacity:1' />
<path class='bond-3 atom-3 atom-4' d='M 150.5,134.2 L 122.5,118.0' style='fill:none;fill-rule:evenodd;stroke:#000000;stroke-width:2.0px;stroke-linecap:butt;stroke-linejoin:miter;stroke-opacity:1' />
<path class='bond-4 atom-4 atom-5' d='M 122.5,118.0 L 94.4,134.1' style='fill:none;fill-rule:evenodd;stroke:#000000;stroke-width:2.0px;stroke-linecap:butt;stroke-linejoin:miter;stroke-opacity:1' />
<path class='bond-5 atom-5 atom-6' d='M 94.4,134.1 L 66.3,117.9' style='fill:none;fill-rule:evenodd;stroke:#000000;stroke-width:2.0px;stroke-linecap:butt;stroke-linejoin:miter;stroke-opacity:1' />
<path class='bond-6 atom-6 atom-7' d='M 66.3,117.9 L 45.2,130.1' style='fill:none;fill-rule:evenodd;stroke:#000000;stroke-width:2.0px;stroke-linecap:butt;stroke-linejoin:miter;stroke-opacity:1' />
<path d='M 208.0,133.4 L 206.6,134.2 L 205.2,133.4' style='fill:none;stroke:#000000;stroke-width:2.0px;stroke-linecap:butt;stroke-linejoin:miter;stroke-miterlimit:10;stroke-opacity:1;' />
<path d='M 180.0,118.8 L 178.6,118.0 L 177.2,118.8' style='fill:none;stroke:#000000;stroke-width:2.0px;stroke-linecap:butt;stroke-linejoin:miter;stroke-miterlimit:10;stroke-opacity:1;' />
<path d='M 151.9,133.4 L 150.5,134.2 L 149.1,133.4' style='fill:none;stroke:#000000;stroke-width:2.0px;stroke-linecap:butt;stroke-linejoin:miter;stroke-miterlimit:10;stroke-opacity:1;' />
<path d='M 123.9,118.8 L 122.5,118.0 L 121.1,118.8' style='fill:none;stroke:#000000;stroke-width:2.0px;stroke-linecap:butt;stroke-linejoin:miter;stroke-miterlimit:10;stroke-opacity:1;' />
<path d='M 95.8,133.3 L 94.4,134.1 L 93.0,133.3' style='fill:none;stroke:#000000;stroke-width:2.0px;stroke-linecap:butt;stroke-linejoin:miter;stroke-miterlimit:10;stroke-opacity:1;' />
<path d='M 67.7,118.7 L 66.3,117.9 L 65.3,118.5' style='fill:none;stroke:#000000;stroke-width:2.0px;stroke-linecap:butt;stroke-linejoin:miter;stroke-miterlimit:10;stroke-opacity:1;' />
<path class='atom-1' d='M226.619,104.01 C225.566,104.617 226.375,106.021 227.428,105.414 C228.48,104.807 229.289,106.211 228.237,106.818 C227.184,107.424 227.993,108.828 229.046,108.221 C230.099,107.614 230.908,109.018 229.855,109.625 C228.802,110.232 229.611,111.635 230.664,111.028 C231.717,110.422 232.526,111.825 231.473,112.432 C230.42,113.039 231.229,114.443 232.282,113.836 C233.335,113.229 234.144,114.633 233.091,115.239 C232.038,115.846 232.847,117.25 233.9,116.643 C234.953,116.036 235.762,117.44 234.709,118.047 C233.657,118.653 234.466,120.057 235.518,119.45 C236.571,118.843 237.38,120.247 236.327,120.854 C235.275,121.461 236.084,122.864 237.137,122.258 C238.189,121.651 238.998,123.054 237.946,123.661 C236.893,124.268 237.702,125.672 238.755,125.065 C239.807,124.458 240.616,125.862 239.564,126.469 C238.511,127.075 239.32,128.479 240.373,127.872 C241.426,127.265 242.235,128.669 241.182,129.276 C240.129,129.883 240.938,131.286 241.991,130.679 C243.044,130.073 243.853,131.476 242.8,132.083' style='fill:none;stroke:#7F7F7F;stroke-width:2.0px;stroke-linecap:butt;stroke-linejoin:miter;stroke-opacity:1' />
<text x='12.8' y='143.8' class='atom-7' style='font-size:19px;font-style:normal;font-weight:normal;fill-opacity:1;stroke:none;font-family:sans-serif;text-anchor:start;fill:#000000' >H</text>
<text x='26.2' y='151.6' class='atom-7' style='font-size:12px;font-style:normal;font-weight:normal;fill-opacity:1;stroke:none;font-family:sans-serif;text-anchor:start;fill:#000000' >3</text>
<text x='32.4' y='143.8' class='atom-7' style='font-size:19px;font-style:normal;font-weight:normal;fill-opacity:1;stroke:none;font-family:sans-serif;text-anchor:start;fill:#000000' >C</text>
</svg>
